file/kayak.svg

<svg clip-rule="evenodd" fill-rule="evenodd" stroke-linejoin="round" stroke-miterlimit="1.41421" viewBox="0 0 560 400" xmlns="http://www.w3.org/2000/svg"><path d="m1.6 188h76v-76h-76zm23.4-57h9.2v17.6l9.8-17.6h10.2l-10.6 19 10.6 19h-10.2l-9.7-17.6v17.6h-9.3zm56.8 57h76v-76h-76zm32.1-57h11.7l12.4 38.1h-10l-1.7-5.5-13.5-.1-1.7 5.5h-9.8zm10.2 25.1h-8.9l4.4-14.2zm37.9 31.9h76v-76h-76zm32-57 6.2 11.7 6.1-11.7h10.7l-12.3 21.3v16.7h-9.3v-16.8l-12.4-21.2zm48.2 57h76v-76h-76zm32.1-57h11.7l12.4 38.1h-10.1l-1.7-5.5-13.5-.1-1.7 5.5h-9.8zm10.2 25.1h-8.9l4.4-14.2zm37.9-44.1v76h76v-76zm52.6 57h-10.2l-9.7-17.6v17.6h-9.2v-38h9.2v17.6l9.7-17.6h10.2l-10.6 19z" fill="#ff690f" fill-rule="nonzero" transform="matrix(1.18421 0 0 1.18421 43.1579 22.3684)"/></svg>

<?xml version="1.0" encoding="UTF-8" standalone="no"?>
<!DOCTYPE svg PUBLIC "-//W3C//DTD SVG 1.1//EN" "http://www.w3.org/Graphics/SVG/1.1/DTD/svg11.dtd">
<svg width="100%" height="100%" viewBox="0 0 560 400" version="1.1" xmlns="http://www.w3.org/2000/svg" xmlns:xlink="http://www.w3.org/1999/xlink" xml:space="preserve" xmlns:serif="http://www.serif.com/" style="fill-rule:evenodd;clip-rule:evenodd;stroke-linejoin:round;stroke-miterlimit:1.41421;">
    <g id="logosvg.com_1_" transform="matrix(1.18421,0,0,1.18421,43.1579,22.3684)">
        <path d="M1.6,188L77.6,188L77.6,112L1.6,112L1.6,188ZM25,131L34.2,131L34.2,148.6L44,131L54.2,131L43.6,150L54.2,169L44,169L34.3,151.4L34.3,169L25,169L25,131ZM81.8,188L157.8,188L157.8,112L81.8,112L81.8,188ZM113.9,131L125.6,131L138,169.1L128,169.1L126.3,163.6L112.8,163.5L111.1,169L101.3,169L113.9,131ZM124.1,156.1L115.2,156.1L119.6,141.9L124.1,156.1ZM162,188L238,188L238,112L162,112L162,188ZM194,131L200.2,142.7L206.3,131L217,131L204.7,152.3L204.7,169L195.4,169L195.4,152.2L183,131L194,131ZM242.2,188L318.2,188L318.2,112L242.2,112L242.2,188ZM274.3,131L286,131L298.4,169.1L288.3,169.1L286.6,163.6L273.1,163.5L271.4,169L261.6,169L274.3,131ZM284.5,156.1L275.6,156.1L280,141.9L284.5,156.1ZM322.4,112L322.4,188L398.4,188L398.4,112L322.4,112ZM375,169L364.8,169L355.1,151.4L355.1,169L345.9,169L345.9,131L355.1,131L355.1,148.6L364.8,131L375,131L364.4,150L375,169Z" style="fill:rgb(255,105,15);fill-rule:nonzero;"/>
    </g>
</svg>
